icon/fa/austral-sign.svg

<svg xmlns="http://www.w3.org/2000/svg" viewBox="0 0 448 512"><!--! Font Awesome Free 6.1.2 by @fontawesome - https://fontawesome.com License - https://fontawesome.com/license/free (Icons: CC BY 4.0, Fonts: SIL OFL 1.1, Code: MIT License) Copyright 2022 Fonticons, Inc.--><path d="M325.3 224H416c17.7 0 32 14.3 32 32s-14.3 32-32 32h-64l13.3 32H416c17.7 0 32 14.3 32 32s-14.3 32-32 32h-24l21.5 51.7c6.8 16.3-.9 35-17.2 41.8-17.2 6.8-35-.9-41.8-17.2L322.7 384H125.3l-31.76 76.3c-6.8 16.3-25.53 24-41.85 17.2-16.31-6.8-24.03-25.5-17.23-41.8L56 384H32c-17.67 0-32-14.3-32-32s14.33-32 32-32h50.67L96 288H32c-17.67 0-32-14.3-32-32s14.33-32 32-32h90.7l71.8-172.31C199.4 39.77 211.1 32 224 32c12.9 0 24.6 7.77 29.5 19.69L325.3 224zm-69.3 0-32.9-76.8-32 76.8H256zm-90.7 64-14.2 32H296l-13.3-32H165.3z"/></svg>

<svg xmlns="http://www.w3.org/2000/svg" viewBox="0 0 448 512" height="1em" width="1em">
<!--! Font Awesome Free 6.1.2 by @fontawesome - https://fontawesome.com License - https://fontawesome.com/license/free (Icons: CC BY 4.0, Fonts: SIL OFL 1.1, Code: MIT License) Copyright 2022 Fonticons, Inc.-->
  <path d="M325.3 224H416C433.7 224 448 238.3 448 256C448 273.7 433.7 288 416 288H352L365.3 320H416C433.7 320 448 334.3 448 352C448 369.7 433.7 384 416 384H392L413.5 435.7C420.3 452 412.6 470.7 396.3 477.5C379.1 484.3 361.3 476.6 354.5 460.3L322.7 384H125.3L93.54 460.3C86.74 476.6 68.01 484.3 51.69 477.5C35.38 470.7 27.66 452 34.46 435.7L56 384H32C14.33 384 0 369.7 0 352C0 334.3 14.33 320 32 320H82.67L96 288H32C14.33 288 0 273.7 0 256C0 238.3 14.33 224 32 224H122.7L194.5 51.69C199.4 39.77 211.1 32 224 32C236.9 32 248.6 39.77 253.5 51.69L325.3 224zM256 224L223.1 147.2L191.1 224H256zM165.3 288L151.1 320H296L282.7 288H165.3z"/>
</svg>
